SVG_Azure_All/Blueprint.svg

<?xml version="1.0" encoding="UTF-8" standalone="no"?>
<!-- Generated by Microsoft Visio, SVG Export Blueprint.svg Page-1 -->

<svg
   xmlns:dc="http://purl.org/dc/elements/1.1/"
   xmlns:cc="http://creativecommons.org/ns#"
   xmlns:rdf="http://www.w3.org/1999/02/22-rdf-syntax-ns#"
   xmlns:svg="http://www.w3.org/2000/svg"
   xmlns="http://www.w3.org/2000/svg"
   xmlns:sodipodi="http://sodipodi.sourceforge.net/DTD/sodipodi-0.dtd"
   xmlns:inkscape="http://www.inkscape.org/namespaces/inkscape"
   width="0.77783763in"
   height="0.7541303in"
   viewBox="0 0 56.00431 54.29756"
   xml:space="preserve"
   class="st4"
   version="1.1"
   id="svg50"
   sodipodi:docname="Blueprint.svg"
   style="font-size:12px;overflow:visible;color-interpolation-filters:sRGB;fill:none;fill-rule:evenodd;stroke-linecap:square;stroke-miterlimit:3"
   inkscape:version="0.92.5 (2060ec1f9f, 2020-04-08)"><metadata
   id="metadata54"><rdf:RDF><cc:Work
       rdf:about=""><dc:format>image/svg+xml</dc:format><dc:type
         rdf:resource="http://purl.org/dc/dcmitype/StillImage" /></cc:Work></rdf:RDF></metadata><sodipodi:namedview
   pagecolor="#ffffff"
   bordercolor="#666666"
   borderopacity="1"
   objecttolerance="10"
   gridtolerance="10"
   guidetolerance="10"
   inkscape:pageopacity="0"
   inkscape:pageshadow="2"
   inkscape:window-width="640"
   inkscape:window-height="480"
   id="namedview52"
   showgrid="false"
   inkscape:zoom="1.4470999"
   inkscape:cx="37.332663"
   inkscape:cy="36.202444"
   inkscape:window-x="0"
   inkscape:window-y="0"
   inkscape:window-maximized="0"
   inkscape:current-layer="svg50" />
	<style
   type="text/css"
   id="style2">
	<![CDATA[
		.st1 {fill:#198ab3;stroke:none;stroke-linecap:butt;stroke-width:34}
		.st2 {fill:url(#grad0-8);stroke:none;stroke-linecap:butt;stroke-width:34}
		.st3 {fill:#ffffff;stroke:none;stroke-linecap:butt;stroke-width:34}
		.st4 {fill:none;fill-rule:evenodd;font-size:12px;overflow:visible;stroke-linecap:square;stroke-miterlimit:3}
	]]>
	</style>

	<defs
   id="Patterns_And_Gradients">
		<linearGradient
   id="grad0-8"
   x1="-2.393809e-07"
   y1="86.963747"
   x2="49.963856"
   y2="86.963747"
   gradientTransform="scale(1.1195127,0.89324575)"
   gradientUnits="userSpaceOnUse">
			<stop
   offset="0"
   stop-color="#198ab3"
   stop-opacity="1"
   id="stop4" />
			<stop
   offset="0"
   stop-color="#198ab3"
   stop-opacity="1"
   id="stop6" />
			<stop
   offset="0.11"
   stop-color="#22a5cb"
   stop-opacity="1"
   id="stop8" />
			<stop
   offset="0.23"
   stop-color="#29bade"
   stop-opacity="1"
   id="stop10" />
			<stop
   offset="0.37"
   stop-color="#2ec9eb"
   stop-opacity="1"
   id="stop12" />
			<stop
   offset="0.53"
   stop-color="#31d1f3"
   stop-opacity="1"
   id="stop14" />
			<stop
   offset="0.78"
   stop-color="#32d4f5"
   stop-opacity="1"
   id="stop16" />
		</linearGradient>
	</defs>
	<g
   id="g48"
   transform="translate(-34.001615,-34.011361)">
		<title
   id="title20">Page-1</title>
		<g
   id="group7232-1"
   transform="translate(34,-34.4553)">
			<title
   id="title22">Blueprint</title>
			<g
   id="group7233-2">
				<title
   id="title24">Icon-manage-304</title>
				<g
   id="shape7234-3"
   transform="translate(44.8486)">
					<title
   id="title26">Sheet.7234</title>
					<path
   d="m 3.42,110.1 a 6.84335,6.74684 0 0 1 7.5,7.26 A 6.21824,6.13055 0 0 1 0.86,121.42 2.20435,2.17326 0 0 1 0,119.67 v -9.6 z"
   class="st1"
   id="path28"
   inkscape:connector-curvature="0"
   style="fill:#198ab3;stroke:none;stroke-width:34;stroke-linecap:butt" />
				</g>
				<g
   id="shape7235-5"
   transform="translate(0.0707316,-4.17105)">
					<title
   id="title31">Sheet.7235</title>
					<path
   d="M 55.87,114.24 V 85.04 A 7.53427,7.42802 -180 0 0 48.33,77.68 H 0 v 29.19 a 7.53427,7.42802 -180 0 0 7.53,7.43 h 32.64 a 84.7523,83.5571 0 0 1 9.87,0 c 6.58,1.04 5.4,8.01 5.4,8.01 a 36.6185,36.1021 -180 0 0 0.43,-8.07 z"
   class="st2"
   id="path33"
   inkscape:connector-curvature="0"
   style="fill:url(#grad0-8);stroke:none;stroke-width:34;stroke-linecap:butt" />
				</g>
				<g
   id="shape7236-9"
   transform="translate(0,-18.9946)">
					<title
   id="title36">Sheet.7236</title>
					<path
   d="m 0.04,122.31 v -0.22 a 6.05374,5.96836 0 0 1 10.66,-2.92 0.756717,0.746045 -180 0 0 1.31603,-0.48655 L 12.01,93.32 a 4.4745,4.4114 -180 0 0 0,-0.95 6.08664,6.0008 -180 0 0 -11.97,0 3.02687,2.98418 -180 0 0 0,0.95 z"
   class="st1"
   id="path38"
   inkscape:connector-curvature="0"
   style="fill:#198ab3;stroke:none;stroke-width:34;stroke-linecap:butt" />
				</g>
				<g
   id="shape7237-11"
   transform="translate(21.8839,-18.5567)">
					<title
   id="title41">Sheet.7237</title>
					<path
   d="m 17.11,112.34 a 0.921221,0.908229 -180 0 0 -0.921221,-0.90823 L 12.9,111.43 c -0.2,-0.45 -0.36,-0.94 -0.56,-1.39 -0.73,-1.85 -1.52,-3.7 -2.27,-5.52 L 9.8,103.91 a 4.5403,4.47627 -180 1 0 -2.3,0 l -0.29,0.64 c -0.83,1.82 -1.62,3.67 -2.41,5.52 L 4.21,111.5 H 0.92 a 0.921221,0.908229 -180 0 0 -0.921221,0.90823 0.88832,0.875792 -180 0 0 0.921221,0.90823 l 2.63,-0.006 a 170.87,168.46 -180 0 0 -2.99,8.01 0.758325,0.74763 -180 0 0 1.38183,0.6163 C 2.96,120.19 3.92,118.4 4.84,116.65 c 0.59,-1.1 1.15,-2.2 1.71,-3.24 h 4.14 l 1.58,3.24 c 0.92,1.79 1.84,3.57 2.8,5.32 a 0.756717,0.746045 -180 0 0 1.38183,-0.58386 C 15.86,119.48 15.2,117.59 14.54,115.71 l -0.89,-2.37 h 2.44 a 0.88832,0.875792 -180 0 0 1.01992,-1.00554 z M 6.12,99.56 a 2.665,2.6274194 0 0 1 5.33,0 2.665,2.6274194 0 0 1 -5.33,0 z m 1.41,11.87 v -0.23 l 1.09,-2.33 1.05,2.3 v 0.26 z"
   class="st3"
   id="path43"
   inkscape:connector-curvature="0"
   style="fill:#ffffff;stroke:none;stroke-width:34;stroke-linecap:butt" />
				</g>
			</g>
		</g>
	</g>
</svg>

<?xml version="1.0" encoding="UTF-8" standalone="no"?>
<!DOCTYPE svg PUBLIC "-//W3C//DTD SVG 1.1//EN" "http://www.w3.org/Graphics/SVG/1.1/DTD/svg11.dtd">
<!-- Generated by Microsoft Visio, SVG Export Blueprint.svg Page-1 -->
<svg xmlns="http://www.w3.org/2000/svg" xmlns:xlink="http://www.w3.org/1999/xlink" xmlns:ev="http://www.w3.org/2001/xml-events"
		width="1.72225in" height="1.6988in" viewBox="0 0 124.002 122.314" xml:space="preserve" color-interpolation-filters="sRGB"
		class="st4">
	<style type="text/css">
	<![CDATA[
		.st1 {fill:#198ab3;stroke:none;stroke-linecap:butt;stroke-width:34}
		.st2 {fill:url(#grad0-8);stroke:none;stroke-linecap:butt;stroke-width:34}
		.st3 {fill:#ffffff;stroke:none;stroke-linecap:butt;stroke-width:34}
		.st4 {fill:none;fill-rule:evenodd;font-size:12px;overflow:visible;stroke-linecap:square;stroke-miterlimit:3}
	]]>
	</style>

	<defs id="Patterns_And_Gradients">
		<linearGradient id="grad0-8" x1="0" y1="0" x2="1" y2="0" gradientTransform="rotate(-90 0.5 0.5)">
			<stop offset="0" stop-color="#198ab3" stop-opacity="1"/>
			<stop offset="0" stop-color="#198ab3" stop-opacity="1"/>
			<stop offset="0.11" stop-color="#22a5cb" stop-opacity="1"/>
			<stop offset="0.23" stop-color="#29bade" stop-opacity="1"/>
			<stop offset="0.37" stop-color="#2ec9eb" stop-opacity="1"/>
			<stop offset="0.53" stop-color="#31d1f3" stop-opacity="1"/>
			<stop offset="0.78" stop-color="#32d4f5" stop-opacity="1"/>
		</linearGradient>
	</defs>
	<g>
		<title>Page-1</title>
		<g id="group7064-1" transform="translate(34,-34.4553)">
			<title>Blueprint</title>
			<g id="group7065-2">
				<title>Icon-manage-304</title>
				<g id="shape7066-3" transform="translate(44.8486,2.70006E-13)">
					<title>Sheet.7066</title>
					<path d="M3.42 110.1 A6.84335 6.74684 0 0 1 10.92 117.36 A6.21824 6.13055 0 0 1 0.86 121.42 A2.20435 2.17326
								 0 0 1 0 119.67 L0 110.07 L3.42 110.1 Z" class="st1"/>
				</g>
				<g id="shape7067-5" transform="translate(0.0707316,-4.17105)">
					<title>Sheet.7067</title>
					<path d="M55.87 114.24 L55.87 85.04 A7.53427 7.42802 -180 0 0 48.33 77.68 L0 77.68 L0 106.87 A7.53427 7.42802
								 -180 0 0 7.53 114.3 L40.17 114.3 A84.7523 83.5571 0 0 1 50.04 114.3 C56.62 115.34 55.44 122.31 55.44
								 122.31 A36.6185 36.1021 -180 0 0 55.87 114.24 Z" class="st2"/>
				</g>
				<g id="shape7068-9" transform="translate(0,-18.9946)">
					<title>Sheet.7068</title>
					<path d="M0.04 122.31 L0.04 122.09 A6.05374 5.96836 0 0 1 10.7 119.17 a0.756717 0.746045 -180 0 0 1.31603 -0.486551
								 L12.01 93.32 A4.4745 4.4114 -180 0 0 12.01 92.37 A6.08664 6.0008 -180 0 0 0.04 92.37 A3.02687 2.98418
								 -180 0 0 0.04 93.32 L0.04 122.31 Z" class="st1"/>
				</g>
				<g id="shape7069-11" transform="translate(21.8839,-18.5567)">
					<title>Sheet.7069</title>
					<path d="M17.11 112.34 a0.921221 0.908229 -180 0 0 -0.921221 -0.908229 L12.9 111.43 C12.7 110.98 12.54 110.49
								 12.34 110.04 C11.61 108.19 10.82 106.34 10.07 104.52 L9.8 103.91 A4.5403 4.47627 -180 1 0 7.5 103.91
								 L7.21 104.55 C6.38 106.37 5.59 108.22 4.8 110.07 L4.21 111.5 L0.92 111.5 a0.921221 0.908229 -180
								 0 0 -0.921221 0.908229 a0.88832 0.875792 -180 0 0 0.921221 0.908229 L3.55 113.31 A170.87 168.46
								 -180 0 0 0.56 121.32 a0.758325 0.74763 -180 0 0 1.38183 0.616298 C2.96 120.19 3.92 118.4 4.84 116.65
								 C5.43 115.55 5.99 114.45 6.55 113.41 L10.69 113.41 L12.27 116.65 C13.19 118.44 14.11 120.22 15.07
								 121.97 a0.756717 0.746045 -180 0 0 1.38183 -0.583861 C15.86 119.48 15.2 117.59 14.54 115.71 L13.65
								 113.34 L16.09 113.34 a0.88832 0.875792 -180 0 0 1.01992 -1.00554 ZM6.12 99.56 A2.66496 2.62738 0
								 0 1 11.45 99.56 A2.66496 2.62738 0 0 1 6.12 99.56 ZM7.53 111.43 L7.53 111.2 L8.62 108.87 L9.67 111.17
								 L9.67 111.43 L7.53 111.43 Z" class="st3"/>
				</g>
			</g>
		</g>
	</g>
</svg>
